X: 118
T:Bunch of Green Rushes, The
M:C|
L:1/8
R:Reel
K:DDor
d[|cAGD F2Fd|cAGc Ad~d2|cAGD F2 (3efg|fdec AddA|!
cAGD F2Fd|cAGc Ad~d2|cAGD F2 (3efg|fdec Add2|]!
Ad~d2 cAGD|FGAB cAGc|Ad~d2 cAGA|d2e^f gecA|!
Ad~d2 cAGD|FGAB cAGc|Ad~d2 cAGA|d2e^f gecA|]!
d2fd adfd|c2ec gcec|d2fd adfd|cAGc AddA|!
Adfd adfd|Acec gcfg|afge fdec|dcAG AddA|]!
